X:1
T:Title
%%score { ( 1 3 ) | ( 2 4 ) }
L:1/8
M:4/4
K:G
V:1 treble nm="Grand Piano"
V:3 treble 
V:2 treble 
V:4 treble 
V:1
 z4 z2[Q:1/4=104] G>B | d6 z2 | A6 z2 | [Ac]2 [Ac]2 [Ac]2 [GB]>[FA] | B2 B2 B2 G>B | d6 z2 | %6
 [G,E]6 [EGc]2 | [GB][GB][GB][GB] [GB]2 [CFA]2 | [B,G]4 z2 G2 | GFE[^DF] [G,EG]2 [EA]2 | %10
 [^DFB]6 [DFB]2 | [GB][FA]G[FA] [GB]2 [G^c]2 | [Fd]6 G>B | d6 z2 | [G,E]6 [EAc]2 | %15
 [GB][GB][GB][GB] [GB]2 [CFA]2 |[M:3/4] [B,G]6 |] %17
V:2
 z4 z2 z z/ G/ | B6 z2 | F6[K:bass] z2 | [D,D]2 [D,D]2 [D,D]2 [D,D]>[D,D] | %4
 [G,DG]2 [G,DG]2 [G,DG]2 z z/ G/ | B6[K:bass] z2 | C,6 C,2 | [D,D][D,D][D,D][D,D] [D,D]2 D,2 | %8
 G,,4 z2 G,2 | G,F,E,F, D,2 C,2 | B,,6 B,,2 | [E,E][E,E][E,E][E,E] [E,E]2 [E,A,]2 | %12
 [D,A,]6 z z/[K:treble] G/ | B6[K:bass] z2 | C,6 C,2 | [D,D][D,D][D,D][D,D] [D,D]2 D,2 | %16
[M:3/4] G,,6 |] %17
V:3
 x8 | z2 D>D D2 B>G | z2 D>D D2 [FA]>[GB] | x8 | x8 | z2 D>D D2 [DB]>[G,DG] | x8 | x8 | x8 | x8 | %10
 x8 | x8 | x8 | z2 D>D D2 [DB]>[G,DG] | x8 | x8 |[M:3/4] x6 |] %17
V:4
 x8 | z2 G,>G, G,2 G2 | z2[K:bass] D,>D, D,2 [D,D]>[D,D] | x8 | x8 | %5
 z2[K:bass] G,>G, G,2 [G,,G,]>B,, | x8 | x8 | x8 | x8 | x8 | x8 | x15/2[K:treble] x/ | %13
 z2 G,>G, G,2[K:bass] [G,,G,]>B,, | x8 | x8 |[M:3/4] x6 |] %17

